X:18
T:Devine's Favorite
R:jig
C:traditional
O:Irish
D:Joe Derrane 78 reissues (Rego), Johnny Wilmot Another Side of Cape Breton
(Breton Books), Tommy Basker, The Tin Sandwich (Silver Apple Music)
S:Silver Apple News,1994
N:Contacts ...
N:..... Cranford Publications <http://www.cranfordpub.com>
Z:This abc transcription is for personal use only,
Z:provided this notice remains attached.
Z:Paul Stewart Cranford <psc@cranfordpub.com>
Q:288
L:1/8
M:6/8
K:A
EAA cBA|eAA cBA|faf fec|BcB BAF|!
EAA cBA|eAA cBA|faf fec|[1BAF AGA:|[2 BAG A2||!
|:(3(e/f/g/)|aga fed|cde ecA|EFA BAB|cBB Bce|!
aga fed|cde ecA|EFA BAB|cAA A2:|!
|:(3(B/c/d/)|eae cec|AcA E3|AEA BAB|cBB Bcd|!
[1eae cec|AcA E3|AGA BAB|cAA A2:|!
[2ece aec|ecA cAE|AGA BAB|cAA AGF|]!

